X: 23026
T: Last Night's Funeral
R: reel
M: 4/4
K: Dmajor
|:ag|fded cAGB|A/B/c AG Adde|fded cAGB|Addc d2:|
ef|gfef gfaf|gfef ~g3 a|gfef gfaf|gfec d2 ef|
gfef gfaf|gfef g2 fg|afge fdec|Addc d2||

